;FLAVOR:UltiGCode
;TIME:2356
;MATERIAL:2077
;MATERIAL2:0
;NOZZLE_DIAMETER:0.4
;MINX:99.732
;MINY:94.049
;MINZ:0.27
;MAXX:123.268
;MAXY:128.951
;MAXZ:25.17
;TARGET_MACHINE.NAME:Ultimaker 2+
;Generated with Cura_SteamEngine 5.6.0
M82 ;absolute extrusion mode
G0 F3000 Y50 ;avoid prime blob
G92 E0
G92 E0
G10
;LAYER_COUNT:250
;LAYER:0
M107
G0 F7200 X101.021 Y95.13 Z0.27
;TYPE:SKIRT
G11
G1 F1800 X101.518 Y94.735 E0.06856
G1 X102.011 Y94.454 E0.12985
G1 X102.661 Y94.209 E0.20487
G1 X103.218 Y94.095 E0.26627
G1 X103.972 Y94.05 E0.34785
G1 X118.619 Y94.049 E1.92973
G1 X119.351 Y94.061 E2.00879
G1 X120.011 Y94.132 E2.08048
G1 X120.561 Y94.278 E2.14194
G1 X121.135 Y94.528 E2.20956
G1 X121.616 Y94.83 E2.2709
G1 X122.188 Y95.338 E2.35352
G1 X122.578 Y95.831 E2.42141
G1 X122.888 Y96.382 E2.48969
G1 X123.107 Y96.974 E2.55786
G1 X123.222 Y97.531 E2.61928
G1 X123.267 Y98.289 E2.70129
G1 X123.268 Y102.143 E3.11752
G1 X123.228 Y104.569 E3.37957
G1 X123.267 Y108.883 E3.8455
G1 X123.268 Y113.055 E4.29607
G1 X123.241 Y114.928 E4.49838
G1 X123.221 Y115.669 E4.57844
G1 X123.223 Y118.393 E4.87263
G1 X123.268 Y120.312 E5.07994
G1 X123.268 Y124.265 E5.50686
G1 X123.257 Y125.026 E5.58906
G1 X123.188 Y125.687 E5.66083
G1 X123.021 Y126.296 E5.72903
G1 X122.761 Y126.87 E5.79709
G1 X122.413 Y127.399 E5.86547
G1 X121.987 Y127.865 E5.93366
G1 X121.493 Y128.258 E6.00184
G1 X120.942 Y128.569 E6.07017
G1 X120.354 Y128.787 E6.1379
G1 X119.8 Y128.903 E6.19903
G1 X119.028 Y128.95 E6.28256
G1 X104.388 Y128.951 E7.86368
G1 X103.656 Y128.94 E7.94274
G1 X102.994 Y128.87 E8.01464
G1 X102.385 Y128.703 E8.08284
G1 X101.81 Y128.442 E8.15104
G1 X101.283 Y128.095 E8.21918
G1 X100.817 Y127.668 E8.28744
G1 X100.424 Y127.173 E8.3557
G1 X100.114 Y126.624 E8.4238
G1 X99.895 Y126.035 E8.49166
G1 X99.733 Y125.286 E8.57442
G1 X99.732 Y120.642 E9.07598
G1 X99.759 Y118.788 E9.27623
G1 X99.779 Y118.047 E9.35629
G1 X99.777 Y115.323 E9.65048
G1 X99.732 Y113.404 E9.85779
G1 X99.732 Y109.221 E10.30955
G1 X99.768 Y107.043 E10.54481
G1 X99.772 Y104.303 E10.84073
G1 X99.732 Y102.499 E11.03561
G1 X99.732 Y98.663 E11.4499
G1 X99.744 Y97.963 E11.52551
G1 X99.816 Y97.304 E11.5971
G1 X99.962 Y96.754 E11.65856
G1 X100.184 Y96.233 E11.71972
G1 X100.595 Y95.592 E11.80196
G1 X101.021 Y95.13 E11.86983
G0 F7200 X101.272 Y95.441
G1 F1800 X101.716 Y95.083 E11.93143
G1 X102.209 Y94.802 E11.99271
G1 X102.741 Y94.601 E12.05413
G1 X103.298 Y94.487 E12.11554
G1 X103.972 Y94.45 E12.18844
G1 X118.613 Y94.449 E13.76967
G1 X119.311 Y94.459 E13.84506
G1 X119.908 Y94.519 E13.90986
G1 X120.458 Y94.665 E13.97132
G1 X120.922 Y94.867 E14.02597
G1 X121.403 Y95.169 E14.08731
G1 X121.876 Y95.588 E14.15555
G1 X122.231 Y96.03 E14.21678
G1 X122.514 Y96.524 E14.27827
G1 X122.715 Y97.055 E14.33959
G1 X122.83 Y97.612 E14.40101
G1 X122.867 Y98.289 E14.47424
G1 X122.868 Y102.136 E14.88971
G1 X122.828 Y104.562 E15.15176
G1 X122.867 Y108.883 E15.61844
G1 X122.868 Y113.049 E16.06837
G1 X122.841 Y114.917 E16.27014
G1 X122.821 Y115.658 E16.35019
G1 X122.823 Y118.393 E16.64557
G1 X122.868 Y120.321 E16.85385
G1 X122.868 Y124.26 E17.27927
G1 X122.859 Y124.987 E17.35779
G1 X122.801 Y125.584 E17.42257
G1 X122.655 Y126.134 E17.48402
G1 X122.425 Y126.653 E17.54533
G1 X122.116 Y127.131 E17.60681
G1 X121.735 Y127.554 E17.66829
G1 X121.294 Y127.911 E17.72957
G1 X120.8 Y128.195 E17.79111
G1 X120.269 Y128.396 E17.85243
G1 X119.775 Y128.504 E17.90704
G1 X119.028 Y128.55 E17.98787
G1 X104.393 Y128.551 E19.56845
G1 X103.695 Y128.542 E19.64384
G1 X103.097 Y128.483 E19.70873
G1 X102.547 Y128.337 E19.77019
G1 X102.027 Y128.106 E19.83164
G1 X101.551 Y127.798 E19.89288
G1 X101.128 Y127.417 E19.95436
G1 X100.771 Y126.974 E20.0158
G1 X100.488 Y126.482 E20.0771
G1 X100.286 Y125.95 E20.13856
G1 X100.133 Y125.243 E20.21669
G1 X100.132 Y120.648 E20.71295
G1 X100.159 Y118.799 E20.91266
G1 X100.179 Y118.058 E20.99272
G1 X100.177 Y115.323 E21.2881
G1 X100.132 Y113.395 E21.49638
G1 X100.132 Y109.228 E21.94641
G1 X100.168 Y107.05 E22.18167
G1 X100.172 Y104.304 E22.47824
G1 X100.132 Y102.49 E22.6742
G1 X100.132 Y98.669 E23.08686
G1 X100.142 Y98.004 E23.15869
G1 X100.203 Y97.407 E23.2235
G1 X100.349 Y96.857 E23.28496
G1 X100.551 Y96.393 E23.33962
G1 X100.891 Y95.861 E23.4078
G1 X101.272 Y95.441 E23.46905
G0 F7200 X101.526 Y95.75
G1 F1800 X101.917 Y95.429 E23.52368
G1 X102.354 Y95.175 E23.57827
G1 X102.825 Y94.992 E23.63284
G1 X103.32 Y94.886 E23.68752
G1 X103.972 Y94.85 E23.75804
G1 X118.607 Y94.849 E25.33862
G1 X119.305 Y94.859 E25.41401
G1 X119.808 Y94.906 E25.46857
G1 X120.298 Y95.032 E25.52321
G1 X120.762 Y95.234 E25.57787
G1 X121.188 Y95.506 E25.63246
G1 X121.566 Y95.841 E25.687
G1 X121.886 Y96.232 E25.74157
G1 X122.141 Y96.669 E25.79622
G1 X122.324 Y97.14 E25.85079
G1 X122.431 Y97.634 E25.90538
G1 X122.467 Y98.289 E25.97622
G1 X122.468 Y102.129 E26.39094
G1 X122.428 Y104.555 E26.65299
G1 X122.467 Y108.883 E27.12043
G1 X122.468 Y113.043 E27.56971
G1 X122.441 Y114.906 E27.77094
G1 X122.421 Y115.647 E27.85099
G1 X122.423 Y118.393 E28.14756
G1 X122.468 Y120.33 E28.35681
G1 X122.468 Y124.255 E28.78071
G1 X122.459 Y124.982 E28.85924
G1 X122.413 Y125.485 E28.91379
G1 X122.288 Y125.975 E28.9684
G1 X122.087 Y126.439 E29.02301
G1 X121.816 Y126.866 E29.07763
G1 X121.481 Y127.245 E29.13226
G1 X121.091 Y127.566 E29.18681
G1 X120.655 Y127.822 E29.24142
G1 X120.184 Y128.005 E29.29599
G1 X119.69 Y128.113 E29.3506
G1 X119.028 Y128.15 E29.42221
G1 X104.398 Y128.151 E31.00225
G1 X103.7 Y128.142 E31.07764
G1 X103.196 Y128.095 E31.13231
G1 X102.706 Y127.97 E31.18692
G1 X102.242 Y127.769 E31.24154
G1 X101.816 Y127.498 E31.29606
G1 X101.437 Y127.163 E31.35069
G1 X101.116 Y126.772 E31.40533
G1 X100.861 Y126.336 E31.45988
G1 X100.677 Y125.865 E31.51449
G1 X100.533 Y125.2 E31.58798
G1 X100.532 Y120.654 E32.07895
G1 X100.559 Y118.81 E32.27812
G1 X100.579 Y118.069 E32.35818
G1 X100.577 Y115.323 E32.65474
G1 X100.532 Y113.386 E32.864
G1 X100.532 Y109.235 E33.3123
G1 X100.568 Y107.057 E33.54756
G1 X100.572 Y104.305 E33.84478
G1 X100.532 Y102.481 E34.04182
G1 X100.532 Y98.675 E34.45286
G1 X100.542 Y98.01 E34.52469
G1 X100.59 Y97.507 E34.57926
G1 X100.716 Y97.017 E34.6339
G1 X100.918 Y96.553 E34.68856
G1 X101.19 Y96.127 E34.74315
G1 X101.526 Y95.75 E34.79769
G10
;MESH:MacGillivrayL.stl
G0 F7200 X104.226 Y97.433
G0 X118.988 Y102.523
;TYPE:WALL-OUTER
G11
G1 F1800 X118.988 Y98.329 E35.29593
G1 X104.012 Y98.329 E37.07508
G1 X104.012 Y102.523 E37.57333
G1 X118.988 Y102.523 E39.35248
G0 F7200 X118.988 Y102.323
G0 X118.588 Y102.123
;TYPE:WALL-INNER
G1 F1800 X118.588 Y98.729 E39.7007
G1 X104.412 Y98.729 E41.15516
G1 X104.412 Y102.123 E41.50338
G1 X118.588 Y102.123 E42.95784
G0 F7200 X118.268 Y101.803
;TYPE:SKIN
G1 F1200 X118.268 Y99.049 E43.22627
G1 X104.732 Y99.049 E44.54563
G1 X104.732 Y101.803 E44.81406
G1 X118.268 Y101.803 E46.13341
G0 F7200 X118.568 Y101.803
G0 X118.496 Y98.821
G0 X117.916 Y99.248
G1 F1200 X118.067 Y99.4 E46.1543
G0 F7200 X118.067 Y99.965
G1 F1200 X117.35 Y99.248 E46.25313
G0 F7200 X116.785 Y99.248
G1 F1200 X118.067 Y100.531 E46.42992
G0 F7200 X118.067 Y101.097
G1 F1200 X116.219 Y99.248 E46.68472
G0 F7200 X115.653 Y99.248
G1 F1200 X118.007 Y101.602 E47.0092
G0 F7200 X117.441 Y101.602
G1 F1200 X115.087 Y99.248 E47.33369
G0 F7200 X114.522 Y99.248
G1 F1200 X116.876 Y101.602 E47.65817
G0 F7200 X116.31 Y101.602
G1 F1200 X113.956 Y99.248 E47.98265
G0 F7200 X113.39 Y99.248
G1 F1200 X115.744 Y101.602 E48.30714
G0 F7200 X115.179 Y101.602
G1 F1200 X112.825 Y99.248 E48.63162
G0 F7200 X112.259 Y99.248
G1 F1200 X114.613 Y101.602 E48.9561
G0 F7200 X114.047 Y101.602
G1 F1200 X111.693 Y99.248 E49.28059
G0 F7200 X111.128 Y99.248
G1 F1200 X113.482 Y101.602 E49.60507
G0 F7200 X112.916 Y101.602
G1 F1200 X110.562 Y99.248 E49.92955
G0 F7200 X109.996 Y99.248
G1 F1200 X112.35 Y101.602 E50.25404
G0 F7200 X111.785 Y101.602
G1 F1200 X109.431 Y99.248 E50.57852
G0 F7200 X108.865 Y99.248
G1 F1200 X111.219 Y101.602 E50.903
G0 F7200 X110.653 Y101.602
G1 F1200 X108.299 Y99.248 E51.22749
G0 F7200 X107.734 Y99.248
G1 F1200 X110.088 Y101.602 E51.55197
G0 F7200 X109.522 Y101.602
G1 F1200 X107.168 Y99.248 E51.87645
G0 F7200 X106.602 Y99.248
G1 F1200 X108.956 Y101.602 E52.20094
G0 F7200 X108.39 Y101.602
G1 F1200 X106.037 Y99.248 E52.52535
G0 F7200 X105.471 Y99.248
G1 F1200 X107.825 Y101.602 E52.84983
G0 F7200 X107.259 Y101.602
G1 F1200 X104.931 Y99.274 E53.17073
G0 F7200 X104.931 Y99.839
G1 F1200 X106.693 Y101.602 E53.41368
G0 F7200 X106.128 Y101.602
G1 F1200 X104.931 Y100.405 E53.57868
G0 F7200 X104.931 Y100.971
G1 F1200 X105.562 Y101.602 E53.66566
G0 F7200 X104.996 Y101.602
G1 F1200 X104.931 Y101.536 E53.67469
G10
G0 F7200 X104.432 Y101.536
G0 X118.718 Y102.303
G0 X118.718 Y103.419
G0 X118.773 Y108.053
G0 X118.988 Y113.349
;TYPE:WALL-OUTER
G11
G1 F1800 X118.988 Y108.949 E54.19741
G1 X104.012 Y108.949 E55.97656
G1 X104.012 Y113.349 E56.49928
G1 X118.988 Y113.349 E58.27843
G0 F7200 X118.988 Y113.149
G0 X118.588 Y112.949
;TYPE:WALL-INNER
G1 F1800 X118.588 Y109.349 E58.64779
G1 X104.412 Y109.349 E60.10224
G1 X104.412 Y112.949 E60.4716
G1 X118.588 Y112.949 E61.92606
G0 F7200 X118.268 Y112.629
;TYPE:SKIN
G1 F1200 X118.268 Y109.669 E62.21457
G1 X104.732 Y109.669 E63.53393
G1 X104.732 Y112.629 E63.82244
G1 X118.268 Y112.629 E65.14179
G0 F7200 X118.568 Y112.629
G0 X118.568 Y110.147
G0 X118.067 Y110.147
G1 F1200 X117.788 Y109.868 E65.18025
G0 F7200 X117.222 Y109.868
G1 F1200 X118.067 Y110.713 E65.29673
G0 F7200 X118.067 Y111.278
G1 F1200 X116.657 Y109.868 E65.49109
G0 F7200 X116.091 Y109.868
G1 F1200 X118.067 Y111.844 E65.76347
G0 F7200 X118.067 Y112.41
G1 F1200 X115.525 Y109.868 E66.11386
G0 F7200 X114.96 Y109.868
G1 F1200 X117.519 Y112.428 E66.46667
G0 F7200 X116.954 Y112.428
G1 F1200 X114.394 Y109.868 E66.81955
G0 F7200 X113.828 Y109.868
G1 F1200 X116.388 Y112.428 E67.17243
G0 F7200 X115.822 Y112.428
G1 F1200 X113.262 Y109.868 E67.52531
G0 F7200 X112.697 Y109.868
G1 F1200 X115.256 Y112.428 E67.87812
G0 F7200 X114.691 Y112.428
G1 F1200 X112.131 Y109.868 E68.231
G0 F7200 X111.565 Y109.868
G1 F1200 X114.125 Y112.428 E68.58388
G0 F7200 X113.559 Y112.428
G1 F1200 X111 Y109.868 E68.93669
G0 F7200 X110.434 Y109.868
G1 F1200 X112.994 Y112.428 E69.28957
G0 F7200 X112.428 Y112.428
G1 F1200 X109.868 Y109.868 E69.64245
G0 F7200 X109.303 Y109.868
G1 F1200 X111.862 Y112.428 E69.99526
G0 F7200 X111.297 Y112.428
G1 F1200 X108.737 Y109.868 E70.34814
G0 F7200 X108.171 Y109.868
G1 F1200 X110.731 Y112.428 E70.70102
G0 F7200 X110.165 Y112.428
G1 F1200 X107.606 Y109.868 E71.05383
G0 F7200 X107.04 Y109.868
G1 F1200 X109.6 Y112.428 E71.40671
G0 F7200 X109.034 Y112.428
G1 F1200 X106.474 Y109.868 E71.75958
G0 F7200 X105.909 Y109.868
G1 F1200 X108.468 Y112.428 E72.11239
G0 F7200 X107.903 Y112.428
G1 F1200 X105.343 Y109.868 E72.46527
G0 F7200 X104.931 Y110.022
G1 F1200 X107.337 Y112.428 E72.79693
G0 F7200 X106.771 Y112.428
G1 F1200 X104.931 Y110.588 E73.05056
G0 F7200 X104.931 Y111.154
G1 F1200 X106.206 Y112.428 E73.22624
G0 F7200 X105.64 Y112.428
G1 F1200 X104.931 Y111.72 E73.3239
G0 F7200 X104.931 Y112.285
G1 F1200 X105.074 Y112.428 E73.34361
G10
G0 F7200 X105.074 Y112.929
G0 X118.718 Y113.129
G0 X118.718 Y114.245
G0 X118.718 Y119.377
G0 X118.988 Y124.671
;TYPE:WALL-OUTER
G11
G1 F1800 X118.988 Y120.273 E73.86609
G1 X104.012 Y120.273 E75.64524
G1 X104.012 Y124.671 E76.16773
G1 X118.988 Y124.671 E77.94687
G0 F7200 X118.988 Y124.471
G0 X118.588 Y124.271
;TYPE:WALL-INNER
G1 F1800 X118.588 Y120.673 E78.31603
G1 X104.412 Y120.673 E79.77049
G1 X104.412 Y124.271 E80.13964
G1 X118.588 Y124.271 E81.5941
G0 F7200 X118.268 Y123.951
;TYPE:SKIN
G1 F1200 X118.268 Y120.993 E81.88242
G1 X104.732 Y120.993 E83.20177
G1 X104.732 Y123.951 E83.49009
G1 X118.268 Y123.951 E84.80944
G0 F7200 X118.568 Y123.951
G0 X118.568 Y121.462
G0 X118.068 Y121.462
G1 F1200 X117.798 Y121.192 E84.84666
G0 F7200 X117.232 Y121.192
G1 F1200 X118.068 Y122.028 E84.96189
G0 F7200 X118.068 Y122.593
G1 F1200 X116.666 Y121.192 E85.15508
G0 F7200 X116.101 Y121.192
G1 F1200 X118.068 Y123.159 E85.42622
G0 F7200 X118.068 Y123.725
G1 F1200 X115.535 Y121.192 E85.77538
G0 F7200 X114.969 Y121.192
G1 F1200 X117.527 Y123.75 E86.12798
G0 F7200 X116.961 Y123.75
G1 F1200 X114.404 Y121.192 E86.48052
G0 F7200 X113.838 Y121.192
G1 F1200 X116.396 Y123.75 E86.83312
G0 F7200 X115.83 Y123.75
G1 F1200 X113.272 Y121.192 E87.18572
G0 F7200 X112.707 Y121.192
G1 F1200 X115.264 Y123.75 E87.53826
G0 F7200 X114.699 Y123.75
G1 F1200 X112.141 Y121.192 E87.89086
G0 F7200 X111.575 Y121.192
G1 F1200 X114.133 Y123.75 E88.24346
G0 F7200 X113.567 Y123.75
G1 F1200 X111.01 Y121.192 E88.596
G0 F7200 X110.444 Y121.192
G1 F1200 X113.002 Y123.75 E88.9486
G0 F7200 X112.436 Y123.75
G1 F1200 X109.878 Y121.192 E89.3012
G0 F7200 X109.313 Y121.192
G1 F1200 X111.87 Y123.75 E89.65374
G0 F7200 X111.304 Y123.75
G1 F1200 X108.747 Y121.192 E90.00627
G0 F7200 X108.181 Y121.192
G1 F1200 X110.739 Y123.75 E90.35888
G0 F7200 X110.173 Y123.75
G1 F1200 X107.615 Y121.192 E90.71148
G0 F7200 X107.05 Y121.192
G1 F1200 X109.607 Y123.75 E91.06401
G0 F7200 X109.042 Y123.75
G1 F1200 X106.484 Y121.192 E91.41662
G0 F7200 X105.918 Y121.192
G1 F1200 X108.476 Y123.75 E91.76922
G0 F7200 X107.91 Y123.75
G1 F1200 X105.353 Y121.192 E92.12176
G0 F7200 X104.931 Y121.336
G1 F1200 X107.345 Y123.75 E92.45451
G0 F7200 X106.779 Y123.75
G1 F1200 X104.931 Y121.902 E92.70924
G0 F7200 X104.931 Y122.468
G1 F1200 X106.213 Y123.75 E92.88596
G0 F7200 X105.648 Y123.75
G1 F1200 X104.931 Y123.033 E92.98479
G0 F7200 X104.931 Y123.599
G1 F1200 X105.082 Y123.75 E93.00561
G10
;MESH:NONMESH
G0 F600 X105.082 Y123.75 Z0.37
G0 F7200 X105.082 Y124.251
G0 X104.226 Y120.487
G0 X104.226 Y119.377
G0 X103.128 Y114.233
G0 X101.526 Y95.75
;TIME_ELAPSED:43.881176
;LAYER:1
M106 S255
;TYPE:SKIRT
G11
G1 F1800 X101.917 Y95.429 E93.02584
G1 X102.354 Y95.175 E93.04606
G1 X102.825 Y94.992 E93.06627
G1 X103.32 Y94.886 E93.08652
G1 X103.972 Y94.85 E93.11264
G1 X118.607 Y94.849 E93.69804
G1 X119.305 Y94.859 E93.72597
G1 X119.808 Y94.906 E93.74617
G1 X120.298 Y95.032 E93.76641
G1 X120.762 Y95.234 E93.78665
G1 X121.188 Y95.506 E93.80687
G1 X121.566 Y95.841 E93.82707
G1 X121.886 Y96.232 E93.84728
G1 X122.141 Y96.669 E93.86752
G1 X122.324 Y97.14 E93.88773
G1 X122.431 Y97.634 E93.90795
G1 X122.467 Y98.289 E93.93419
G1 X122.468 Y102.129 E94.08779
G1 X122.428 Y104.555 E94.18485
G1 X122.467 Y108.883 E94.35797
G1 X122.468 Y113.043 E94.52437
G1 X122.441 Y114.906 E94.5989
G1 X122.421 Y115.647 E94.62855
G1 X122.423 Y118.393 E94.73839
G1 X122.468 Y120.33 E94.81589
G1 X122.468 Y124.255 E94.97289
G1 X122.459 Y124.982 E95.00197
G1 X122.413 Y125.485 E95.02218
G1 X122.288 Y125.975 E95.04241
G1 X122.087 Y126.439 E95.06263
G1 X121.816 Y126.866 E95.08286
G1 X121.481 Y127.245 E95.1031
G1 X121.091 Y127.566 E95.1233
G1 X120.655 Y127.822 E95.14352
G1 X120.184 Y128.005 E95.16374
G1 X119.69 Y128.113 E95.18396
G1 X119.028 Y128.15 E95.21048
G1 X104.398 Y128.151 E95.79568
G1 X103.7 Y128.142 E95.82361
G1 X103.196 Y128.095 E95.84385
G1 X102.706 Y127.97 E95.86408
G1 X102.242 Y127.769 E95.88431
G1 X101.816 Y127.498 E95.9045
G1 X101.437 Y127.163 E95.92474
G1 X101.116 Y126.772 E95.94497
G1 X100.861 Y126.336 E95.96518
G1 X100.677 Y125.865 E95.9854
G1 X100.533 Y125.2 E96.01262
G1 X100.532 Y120.654 E96.19446
G1 X100.559 Y118.81 E96.26823
G1 X100.579 Y118.069 E96.29788
G1 X100.577 Y115.323 E96.40772
G1 X100.532 Y113.386 E96.48522
G1 X100.532 Y109.235 E96.65126
G1 X100.568 Y107.057 E96.73839
G1 X100.572 Y104.305 E96.84847
G1 X100.532 Y102.481 E96.92145
G1 X100.532 Y98.675 E97.07369
G1 X100.542 Y98.01 E97.10029
G1 X100.59 Y97.507 E97.1205
G1 X100.716 Y97.017 E97.14074
G1 X100.918 Y96.553 E97.16098
G1 X101.19 Y96.127 E97.1812
G1 X101.526 Y95.75 E97.2014
G10
;MESH:MacGillivrayL.stl
G0 F7200 X104.146 Y97.353
G0 X119.068 Y102.603
;TYPE:WALL-OUTER
G11
G1 F1800 X119.068 Y98.249 E97.37556
G1 X103.932 Y98.249 E97.981
G1 X103.932 Y102.603 E98.15516
G1 X119.068 Y102.603 E98.7606
G0 F7200 X119.068 Y102.403
G0 X118.668 Y102.203
;TYPE:WALL-INNER
G1 F2100 X118.668 Y98.649 E98.90276
G1 X104.332 Y98.649 E99.4762
